svgs/thin/arrow-up-triangle-square.svg

<svg xmlns="http://www.w3.org/2000/svg" viewBox="0 0 512 512"><!--! Font Awesome Pro 6.3.0 by @fontawesome - https://fontawesome.com License - https://fontawesome.com/license (Commercial License) Copyright 2023 Fonticons, Inc. --><path d="M432 288l-128 .0107c-17.67 0-32 14.33-32 32V448c0 17.67 14.33 32 32 32l128-.0098c17.67 0 32-14.32 32-31.99v-127.1C464 302.3 449.7 288 432 288zM448 448c0 8.822-7.178 16-16 16h-128c-8.822 0-16-7.178-16-16v-127.1c0-8.822 7.178-15.1 16-15.1h128c8.822 0 16 7.178 16 16V448zM476.1 182.9L393 45.78C387.4 36.59 377.8 32 368.1 32s-19.38 4.594-24.94 13.78l-83.25 137.1c-11 18.25 2.75 41.12 25 41.12h166.3C473.4 224 487.1 201.1 476.1 182.9zM462.6 201.7c-2.23 3.951-6.516 6.311-11.46 6.311h-166.3c-4.945 0-9.229-2.359-11.46-6.311c-1.119-1.98-2.588-5.988 .1367-10.51l83.26-137.1C360.1 48.59 365.8 48 368.1 48c2.279 0 7.936 .5918 11.26 6.074l83.11 137.1C465.2 195.7 463.7 199.7 462.6 201.7zM133.9 34.48c-3.062-3.312-8.75-3.312-11.81 0L34.09 130.5c-2.969 3.252-2.75 8.314 .5 11.32c3.25 3 8.312 2.781 11.31-.5L120 60.47V471.1C120 476.4 123.6 480 128 480s8-3.594 8-8.002V60.47l74.1 80.85c1.594 1.719 3.75 2.594 5.906 2.594c1.938 0 3.875-.6875 5.406-2.094c3.25-3.002 3.469-8.064 .5-11.32L133.9 34.48z"/></svg>

<svg xmlns="http://www.w3.org/2000/svg" viewBox="0 0 512 512"><!-- Font Awesome Pro 6.0.0-alpha2 by @fontawesome - https://fontawesome.com License - https://fontawesome.com/license (Commercial License) --><path d="M432.008 288.014H304.006C286.332 288.014 272.006 302.34 272.006 320.014V448C272.006 465.674 286.332 480 304.006 480H432.008C449.68 480 464.008 465.674 464.008 448V320.014C464.008 302.34 449.68 288.014 432.008 288.014ZM448.008 448C448.008 456.822 440.83 464 432.008 464H304.006C295.184 464 288.006 456.822 288.006 448V320.014C288.006 311.191 295.184 304.014 304.006 304.014H432.008C440.83 304.014 448.008 311.191 448.008 320.014V448ZM476.133 182.895L393.006 45.779C387.443 36.594 377.756 32 368.068 32S348.693 36.594 343.131 45.779L259.881 182.895C248.881 201.145 262.631 224.018 284.881 224.018H451.133C473.383 224.018 487.133 201.145 476.133 182.895ZM462.592 201.707C460.361 205.658 456.076 208.018 451.133 208.018H284.881C279.936 208.018 275.652 205.658 273.42 201.707C272.301 199.727 270.832 195.719 273.557 191.199L356.818 54.066C360.133 48.592 365.791 48 368.068 48C370.348 48 376.004 48.592 379.324 54.074L462.43 191.154C465.18 195.719 463.713 199.727 462.592 201.707ZM133.906 34.484C130.844 31.172 125.156 31.172 122.094 34.484L34.09 130.508C31.121 133.76 31.34 138.822 34.59 141.824C37.84 144.824 42.902 144.605 45.904 141.324L120 60.471V471.998C120 476.406 123.594 480 128 480S136 476.406 136 471.998V60.471L210.098 141.324C211.691 143.043 213.848 143.918 216.004 143.918C217.941 143.918 219.879 143.23 221.41 141.824C224.66 138.822 224.879 133.76 221.91 130.508L133.906 34.484Z"/></svg>
